X:1
T:Communio, 10.10
T:Communio, 10.10
T:Cedric Bucknall, 1889
T:Public Domain Courtesy of the Cyber Hymnal™
C:Cedric Bucknall, 1889
Z:Public Domain
Z:Courtesy of the Cyber Hymnal™
%%score ( 1 2 ) 3
L:1/8
M:4/4
K:F
V:1 treble 
V:2 treble 
V:3 bass 
V:1
 [CF]2 | [DF]4 [EG]4 | [FA]6 [FA]2 | [^Fc]3 [Fc] [FB]2 [FA]2 | G6 [DB]2 | [^CA]4 [EG]4 | %6
 [DF]3 [DF] [DG]2 [FA]2 | G6 F2 | F6 |] %9
V:2
 x2 | x8 | x8 | x8 | G6 x2 | x8 | x8 | (F4 E2) F2 | F6 |] %9
V:3
 [F,A,]2 | [D,A,]4 [C,C]4 | [F,C]6 [_E,C]2 | [D,A,]3 [D,A,] [D,D]2 [D,C]2 | [G,B,]6 [G,,G,]2 | %5
 [A,,E,]4 [^C,A,]4 | [D,A,]3 [D,A,] [B,,B,]2 [A,,C]2 | [C,B,]6 [F,A,]2 | [F,A,]6 |] %9

